resources/svg/mastodon-line.svg

<svg fill="currentColor" viewBox="0 0 24 24" xmlns="http://www.w3.org/2000/svg"><path d="M3.019 12.0075C2.98744 10.7478 3.00692 9.5598 3.00692 8.56644C3.00692 4.22767 5.84954 2.95597 5.84954 2.95597C7.28286 2.29767 9.74238 2.0209 12.2993 2H12.3621C14.919 2.0209 17.3801 2.29767 18.8134 2.95597C18.8134 2.95597 21.656 4.22767 21.656 8.56644C21.656 8.56644 21.6916 11.7674 21.2596 13.9898C20.9852 15.4007 18.8034 16.9446 16.2974 17.2438C14.9906 17.3999 13.7042 17.5431 12.3322 17.4802C10.0885 17.3775 8.31815 16.9446 8.31815 16.9446C8.31815 17.1631 8.33166 17.3711 8.35853 17.5655C8.44182 18.1978 8.65659 18.6604 8.96296 19C9.72944 19.8497 11.0692 19.9301 12.3577 19.9743C14.178 20.0366 15.7986 19.5254 15.7986 19.5254L15.8735 21.1712C15.8735 21.1712 14.6003 21.8548 12.3322 21.9805C11.0815 22.0493 9.52858 21.9491 7.71969 21.4704C6.18802 21.065 5.15153 20.1804 4.45091 19C3.35714 17.1573 3.08191 14.5938 3.019 12.0075ZM6.31815 16.9446V14.3967L8.79316 15.0018C8.8405 15.0134 8.95098 15.0383 9.11692 15.0723C9.40521 15.1313 9.73416 15.1908 10.0959 15.2467C10.8485 15.3628 11.6341 15.4462 12.4237 15.4823C13.4425 15.529 14.3249 15.4652 16.0603 15.2579C17.7233 15.0594 19.208 14.0622 19.2963 13.6082C19.3783 13.1861 19.4472 12.6858 19.5021 12.1261C19.5714 11.4205 19.6155 10.6558 19.6388 9.88068C19.654 9.37026 19.6582 8.93648 19.6564 8.62452L19.656 8.56644C19.656 7.1368 19.2873 6.12756 18.6928 5.40793C18.5008 5.17553 18.3004 4.99408 18.1087 4.85958C18.0183 4.79617 17.9737 4.77136 17.9787 4.77345C16.9662 4.30844 14.8859 4.02069 12.3621 3.99993H12.3156C9.77596 4.02069 7.6969 4.30836 6.66627 4.78161C6.68919 4.77136 6.64459 4.79617 6.55423 4.85958C6.36257 4.99408 6.16214 5.17553 5.97016 5.40793C5.37568 6.12756 5.00692 7.1368 5.00692 8.56644C5.00692 8.7976 5.00628 8.96339 5.00392 9.44137C4.9981 10.6238 5.00004 11.2256 5.01841 11.9589C5.07185 14.156 5.2822 15.7941 5.71797 17C5.93023 17.5874 6.19005 18.0709 6.49741 18.4507C6.37791 18.0162 6.31815 17.5142 6.31815 16.9446ZM8.08576 6.37135C8.71735 6.37135 9.22924 6.88324 9.22924 7.51482C9.22924 8.14626 8.71735 8.6583 8.08576 8.6583C7.45432 8.6583 6.94229 8.14626 6.94229 7.51482C6.94229 6.88324 7.45432 6.37135 8.08576 6.37135Z"/></svg>

<svg xmlns="http://www.w3.org/2000/svg" viewBox="0 0 24 24" fill="currentColor">
    <g>
        <path fill="none" d="M0 0h24v24H0z"/>
        <path fill-rule="nonzero" d="M3.018 12.008c-.032-1.26-.012-2.448-.012-3.442 0-4.338 2.843-5.61 2.843-5.61 1.433-.658 3.892-.935 6.45-.956h.062c2.557.02 5.018.298 6.451.956 0 0 2.843 1.272 2.843 5.61 0 0 .036 3.201-.396 5.424-.275 1.41-2.457 2.955-4.963 3.254-1.306.156-2.593.3-3.965.236-2.243-.103-4.014-.535-4.014-.535 0 .218.014.426.04.62.084.633.299 1.095.605 1.435.766.85 2.106.93 3.395.974 1.82.063 3.44-.449 3.44-.449l.076 1.646s-1.274.684-3.542.81c-1.25.068-2.803-.032-4.612-.51-1.532-.406-2.568-1.29-3.27-2.471-1.093-1.843-1.368-4.406-1.431-6.992zm3.3 4.937v-2.548l2.474.605a20.54 20.54 0 0 0 1.303.245c.753.116 1.538.2 2.328.235 1.019.047 1.901-.017 3.636-.224 1.663-.199 3.148-1.196 3.236-1.65.082-.422.151-.922.206-1.482a33.6 33.6 0 0 0 .137-2.245c.015-.51.02-.945.017-1.256v-.059c0-1.43-.369-2.438-.963-3.158a3.008 3.008 0 0 0-.584-.548c-.09-.064-.135-.089-.13-.087-1.013-.465-3.093-.752-5.617-.773h-.046c-2.54.02-4.62.308-5.65.782.023-.01-.021.014-.112.078a3.008 3.008 0 0 0-.584.548c-.594.72-.963 1.729-.963 3.158 0 .232 0 .397-.003.875a77.483 77.483 0 0 0 .014 2.518c.054 2.197.264 3.835.7 5.041.212.587.472 1.07.78 1.45a5.7 5.7 0 0 1-.18-1.505zM8.084 6.37a1.143 1.143 0 1 1 0 2.287 1.143 1.143 0 0 1 0-2.287z"/>
    </g>
</svg>
